img/svg/about-book-decor.svg

<svg width="535" height="536" viewBox="0 0 535 536" fill="none" xmlns="http://www.w3.org/2000/svg">
<g clip-path="url(#clip0)">
<path d="M0.907715 521.343L2.72312 517.53L12.7078 522.613L17.791 532.598L13.9787 534.414L9.62169 525.7L0.907715 521.343Z" fill="#EFEAE1"/>
<path d="M0.907501 495.019L2.72291 491.207L30.3171 505.004L44.1143 532.598L40.3019 534.414L27.2309 508.09L0.907501 495.019Z" fill="#EFEAE1"/>
<path d="M0.908081 468.514L2.72349 464.702L47.9271 487.394L70.6196 532.598L66.8073 534.413L44.8409 490.481L0.908081 468.514Z" fill="#EFEAE1"/>
<path d="M0.907959 442.191L2.72337 438.378L65.5364 469.785L96.9429 532.598L93.1305 534.413L62.4502 472.871L0.907959 442.191Z" fill="#EFEAE1"/>
<path d="M6.09558e-05 389L3.81242 387.184L20.5142 420.769L83.1457 452.176L114.552 514.807L148.137 531.509L146.322 535.321L111.284 517.893L80.0595 455.262L17.428 424.037L6.09558e-05 389Z" fill="#EFEAE1"/>
<path d="M0.907837 342.343L2.72324 338.531L6.8987 340.528L38.1236 403.16L100.755 434.566L132.162 497.198L194.793 528.422L196.79 532.598L192.978 534.413L191.525 531.509L128.894 500.284L97.6689 437.652L35.0375 406.427L3.8125 343.796L0.907837 342.343Z" fill="#EFEAE1"/>
<path d="M0.907654 316.02L2.72305 312.208L24.5079 322.919L55.7329 385.55L118.364 416.957L149.771 479.588L212.402 510.813L223.113 532.598L219.301 534.413L209.135 513.899L146.503 482.674L115.278 420.043L52.6467 388.818L21.4218 326.186L0.907654 316.02Z" fill="#EFEAE1"/>
<path d="M0.907608 289.515L2.72301 285.703L42.1173 305.31L73.3423 367.941L135.974 399.348L167.38 461.979L230.012 493.204L249.618 532.598L245.806 534.414L226.744 496.29L164.113 465.065L132.888 402.434L70.2561 371.209L39.0311 308.577L0.907608 289.515Z" fill="#EFEAE1"/>
<path d="M0.907471 263.192L2.72287 259.38L59.7266 287.7L90.9516 350.332L153.583 381.738L184.99 444.37L247.621 475.595L275.941 532.598L272.129 534.414L244.353 478.681L181.722 447.456L150.497 384.824L87.8654 353.599L56.6404 290.968L0.907471 263.192Z" fill="#EFEAE1"/>
<path d="M0.000244053 218.896L3.81262 216.899L14.705 238.865L77.3365 270.09L108.562 332.722L171.193 364.128L202.599 426.76L265.231 457.985L296.456 520.616L318.422 531.509L316.425 535.321L293.37 523.703L261.963 461.253L199.332 429.846L168.107 367.215L105.475 335.99L74.0688 273.358L11.6189 241.952L0.000244053 218.896Z" fill="#EFEAE1"/>
<path d="M9.14654e-05 166.068L3.81244 164.071L32.3143 221.256L94.9458 252.481L126.171 315.113L188.802 346.519L220.209 409.151L282.84 440.376L314.065 503.007L371.25 531.509L369.254 535.321L310.979 506.093L279.573 443.643L216.941 412.237L185.716 349.605L123.085 318.38L91.6781 255.749L29.2281 224.342L9.14654e-05 166.068Z" fill="#EFEAE1"/>
<path d="M0.907654 137.021L2.72308 133.209L18.6987 141.015L49.9236 203.647L112.555 234.872L143.78 297.503L206.412 328.91L237.818 391.541L300.45 422.766L331.675 485.398L394.306 516.623L402.112 532.598L398.3 534.414L391.038 519.891L328.588 488.484L297.182 426.034L234.55 394.627L203.325 331.996L140.694 300.771L109.287 238.14L46.8375 206.733L15.4309 144.283L0.907654 137.021Z" fill="#EFEAE1"/>
<path d="M0.907684 110.516L2.72308 106.704L36.3081 123.406L67.5331 186.037L130.165 217.262L161.389 279.894L224.021 311.3L255.427 373.932L318.059 405.157L349.284 467.788L411.915 499.013L428.617 532.598L424.805 534.414L408.648 502.281L346.198 470.874L314.791 408.424L252.16 377.018L220.935 314.386L158.303 283.162L126.897 220.53L64.4469 189.123L33.0404 126.674L0.907684 110.516Z" fill="#EFEAE1"/>
<path d="M0.907532 84.1931L2.72293 80.3807L53.9174 105.796L85.1423 168.428L147.774 199.653L178.999 262.284L241.63 293.691L273.037 356.322L335.668 387.547L366.893 450.179L429.525 481.404L454.94 532.598L451.128 534.414L426.257 484.671L363.626 453.265L332.401 390.815L269.769 359.409L238.544 296.777L175.913 265.552L144.506 202.921L82.0562 171.696L50.6497 109.064L0.907532 84.1931Z" fill="#EFEAE1"/>
<path d="M-0.000213702 48.6112L3.81216 46.7958L8.89532 56.962L71.5268 88.187L102.752 150.818L165.383 182.043L196.608 244.675L259.24 276.081L290.646 338.713L353.278 369.938L384.503 432.569L447.134 463.794L478.359 526.426L488.525 531.509L486.71 535.321L475.273 529.694L443.866 467.062L381.235 435.656L350.01 373.206L287.378 341.799L256.153 279.168L193.522 247.943L162.116 185.311L99.6656 154.086L68.259 91.4547L5.62756 60.0482L-0.000213702 48.6112Z" fill="#EFEAE1"/>
<path d="M3.6308 3.22593L7.44318 1.22898L26.5049 39.3525L89.1364 70.5775L120.361 133.209L182.993 164.434L214.218 227.065L276.849 258.472L308.256 321.103L370.887 352.328L402.112 414.96L464.744 446.185L495.969 508.816L534.092 527.878L532.095 531.69L492.883 512.084L461.476 449.453L398.845 418.046L367.62 355.596L304.988 324.19L273.763 261.558L211.132 230.333L179.725 167.702L117.275 136.477L85.8687 73.8452L23.2372 42.4387L3.6308 3.22593Z" fill="#EFEAE1"/>
<path d="M30.1357 3.22593L33.7665 1.22898L44.1144 21.7431L106.746 52.968L137.971 115.6L200.602 146.824L231.827 209.456L294.459 240.863L325.865 303.494L388.497 334.719L419.722 397.35L482.353 428.575L513.578 491.207L534.092 501.555L532.095 505.186L510.492 494.475L479.085 431.843L416.454 400.437L385.229 337.987L322.598 306.58L291.373 243.949L228.741 212.724L197.335 150.092L134.885 118.867L103.478 56.2358L40.8466 24.8293L30.1357 3.22593Z" fill="#EFEAE1"/>
<path d="M56.4591 3.22593L60.2715 1.22898L61.7238 4.13363L124.355 35.3586L155.58 97.9901L218.212 129.215L249.437 191.847L312.068 223.253L343.475 285.885L406.106 317.11L437.331 379.741L499.963 410.966L531.188 473.598L534.092 475.05L532.095 478.862L528.101 476.865L496.695 414.234L434.063 382.827L402.838 320.377L340.207 288.971L308.982 226.339L246.351 195.114L214.944 132.483L152.494 101.258L121.088 38.6263L58.4561 7.21982L56.4591 3.22593Z" fill="#EFEAE1"/>
<path d="M105.112 4.13362L106.927 0.32127L141.965 17.7492L173.19 80.3806L235.821 111.787L267.046 174.237L329.678 205.644L361.084 268.275L423.534 299.5L454.941 362.132L517.572 393.357L535 428.394L531.188 430.209L514.304 396.624L451.673 365.218L420.448 302.768L357.816 271.361L326.591 208.73L263.96 177.505L232.553 114.873L170.104 83.6484L138.697 21.0169L105.112 4.13362Z" fill="#EFEAE1"/>
<path d="M156.306 3.22593L160.119 1.22899L190.799 62.7712L253.431 94.1777L284.656 156.628L347.287 188.034L378.694 250.666L441.144 281.891L472.55 344.522L534.092 375.203L532.095 379.015L469.282 347.608L438.057 285.158L375.426 253.752L344.201 191.12L281.569 159.895L250.163 97.2639L187.713 66.039L156.306 3.22593Z" fill="#EFEAE1"/>
<path d="M182.63 3.22593L186.442 1.22899L208.409 45.1618L271.04 76.5683L302.265 139.018L364.897 170.425L396.303 233.056L458.753 264.281L490.159 326.913L534.092 348.879L532.095 352.691L486.892 329.999L455.667 267.549L393.035 236.142L361.81 173.511L299.179 142.286L267.772 79.6545L205.322 48.4295L182.63 3.22593Z" fill="#EFEAE1"/>
<path d="M209.135 3.22594L212.947 1.22899L226.018 27.5524L288.65 58.9589L319.874 121.409L382.506 152.815L413.912 215.447L476.362 246.672L507.769 309.303L534.092 322.374L532.095 326.187L504.501 312.389L473.276 249.94L410.645 218.533L379.42 155.902L316.788 124.677L285.382 62.0451L222.932 30.8201L209.135 3.22594Z" fill="#EFEAE1"/>
<path d="M235.458 3.22594L239.27 1.22899L243.627 9.94294L306.259 41.3495L337.484 103.799L400.115 135.206L431.522 197.837L493.972 229.062L525.378 291.694L534.092 296.051L532.095 299.863L522.111 294.78L490.886 232.33L428.254 200.924L397.029 138.292L334.398 107.067L302.991 44.4356L240.541 13.2107L235.458 3.22594Z" fill="#EFEAE1"/>
<path d="M275.215 4.13363L277.212 0.321278L323.868 23.74L355.093 86.19L417.725 117.596L449.131 180.228L511.581 211.453L535 258.109L531.188 260.106L508.495 214.721L445.864 183.314L414.639 120.683L352.007 89.4577L320.601 26.8262L275.215 4.13363Z" fill="#EFEAE1"/>
<path d="M328.044 4.13363L330.041 0.32128L341.478 6.13058L372.703 68.5805L435.334 99.987L466.741 162.619L529.191 193.844L535 205.281L531.188 207.278L526.105 197.111L463.473 165.705L432.248 103.073L369.617 71.8483L338.21 9.21677L328.044 4.13363Z" fill="#EFEAE1"/>
<path d="M361.629 3.22594L365.441 1.229L390.312 50.9711L452.944 82.3776L484.35 145.009L534.092 169.88L532.095 173.693L481.082 148.095L449.857 85.4638L387.226 54.2388L361.629 3.22594Z" fill="#EFEAE1"/>
<path d="M388.134 3.22594L391.946 1.229L407.922 33.3617L470.553 64.7682L501.96 127.4L534.092 143.375L532.095 147.188L498.692 130.486L467.467 67.8544L404.835 36.6294L388.134 3.22594Z" fill="#EFEAE1"/>
<path d="M414.457 3.22594L418.269 1.229L425.531 15.7522L488.163 47.1588L519.569 109.79L534.092 117.052L532.095 120.864L516.301 112.876L485.076 50.245L422.445 19.02L414.457 3.22594Z" fill="#EFEAE1"/>
<path d="M445.501 4.13364L447.316 0.321285L505.772 29.5493L535 88.0054L531.188 89.8208L502.686 32.6355L445.501 4.13364Z" fill="#EFEAE1"/>
<path d="M498.329 4.13364L500.144 0.321288L523.381 11.9399L535 35.1771L531.188 36.9925L520.295 15.0261L498.329 4.13364Z" fill="#EFEAE1"/>
</g>
<defs>
<clipPath id="clip0">
<rect x="535" y="0.321289" width="535" height="535" transform="rotate(90 535 0.321289)" fill="white"/>
</clipPath>
</defs>
</svg>

<svg width="535" height="536" viewBox="0 0 535 536" fill="none" xmlns="http://www.w3.org/2000/svg"><g clip-path="url(#clip0)" fill="#EFEAE1"><path d="M.908 521.343l1.815-3.813 9.985 5.083 5.083 9.985-3.812 1.816-4.357-8.714-8.714-4.357zm0-26.324l1.815-3.812 27.594 13.797 13.797 27.594-3.812 1.816L27.23 508.09.908 495.019zm0-26.505l1.815-3.812 45.204 22.692 22.693 45.204-3.813 1.815-21.966-43.932L.908 468.514z"/><path d="M.908 442.191l1.815-3.813 62.813 31.407 31.407 62.813-3.813 1.815-30.68-61.542-61.542-30.68z"/><path d="M0 389l3.812-1.816 16.702 33.585 62.632 31.407 31.406 62.631 33.585 16.702-1.815 3.812-35.038-17.428-31.225-62.631-62.631-31.225L0 389z"/><path d="M.908 342.343l1.815-3.812 4.176 1.997 31.225 62.632 62.631 31.406 31.407 62.632 62.631 31.224 1.997 4.176-3.812 1.815-1.453-2.904-62.631-31.225-31.225-62.632-62.631-31.225-31.225-62.631-2.905-1.453z"/><path d="M.908 316.02l1.815-3.812 21.785 10.711 31.225 62.631 62.631 31.407 31.407 62.631 62.631 31.225 10.711 21.785-3.812 1.815-10.166-20.514-62.632-31.225-31.225-62.631-62.631-31.225-31.225-62.632L.908 316.02z"/><path d="M.908 289.515l1.815-3.812 39.394 19.607 31.225 62.631 62.632 31.407 31.406 62.631 62.632 31.225 19.606 39.394-3.812 1.816-19.062-38.124-62.631-31.225-31.225-62.631-62.632-31.225-31.225-62.632L.908 289.515z"/><path d="M.907 263.192l1.816-3.812 57.004 28.32 31.225 62.632 62.631 31.406 31.407 62.632 62.631 31.225 28.32 57.003-3.812 1.816-27.776-55.733-62.631-31.225-31.225-62.632-62.632-31.225-31.225-62.631L.907 263.192z"/><path d="M0 218.896l3.813-1.997 10.892 21.966 62.632 31.225 31.225 62.632 62.631 31.406 31.406 62.632 62.632 31.225 31.225 62.631 21.966 10.893-1.997 3.812-23.055-11.618-31.407-62.45-62.631-31.407-31.225-62.631-62.632-31.225-31.406-62.632-62.45-31.406L0 218.896z"/><path d="M0 166.068l3.812-1.997 28.502 57.185 62.632 31.225 31.225 62.632 62.631 31.406 31.407 62.632 62.631 31.225 31.225 62.631 57.185 28.502-1.996 3.812-58.275-29.228-31.406-62.45-62.632-31.406-31.225-62.632-62.631-31.225-31.407-62.631-62.45-31.407L0 166.068z"/><path d="M.908 137.021l1.815-3.812 15.976 7.806 31.225 62.632 62.631 31.225 31.225 62.631 62.632 31.407 31.406 62.631 62.632 31.225 31.225 62.632 62.631 31.225 7.806 15.975-3.812 1.816-7.262-14.523-62.45-31.407-31.406-62.45-62.632-31.407-31.225-62.631-62.631-31.225-31.407-62.631-62.45-31.407-31.406-62.45-14.523-7.262z"/><path d="M.908 110.516l1.815-3.812 33.585 16.702 31.225 62.631 62.632 31.225 31.224 62.632 62.632 31.406 31.406 62.632 62.632 31.225 31.225 62.631 62.631 31.225 16.702 33.585-3.812 1.816-16.157-32.133-62.45-31.407-31.407-62.45-62.631-31.406-31.225-62.632-62.632-31.224-31.406-62.632-62.45-31.407-31.407-62.449L.908 110.516z"/><path d="M.908 84.193l1.815-3.812 51.194 25.415 31.225 62.632 62.632 31.225 31.225 62.631 62.631 31.407 31.407 62.631 62.631 31.225 31.225 62.632 62.632 31.225 25.415 51.194-3.812 1.816-24.871-49.743-62.631-31.406-31.225-62.45-62.632-31.406-31.225-62.632-62.631-31.225-31.407-62.631-62.45-31.225-31.406-62.632L.908 84.194z"/><path d="M0 48.611l3.812-1.815 5.083 10.166 62.632 31.225 31.225 62.631 62.631 31.225 31.225 62.632 62.632 31.406 31.406 62.632 62.632 31.225 31.225 62.631 62.631 31.225 31.225 62.632 10.166 5.083-1.815 3.812-11.437-5.627-31.407-62.632-62.631-31.406-31.225-62.45-62.632-31.407-31.225-62.631-62.631-31.225-31.406-62.632-62.45-31.225-31.407-62.631L5.628 60.048 0 48.611z"/><path d="M3.63 3.226l3.813-1.997 19.062 38.123 62.631 31.226 31.225 62.631 62.632 31.225 31.225 62.631 62.631 31.407 31.407 62.631 62.631 31.225 31.225 62.632 62.632 31.225 31.225 62.631 38.123 19.062-1.997 3.812-39.212-19.606-31.407-62.631-62.631-31.407-31.225-62.45-62.632-31.406-31.225-62.632-62.631-31.225-31.407-62.631-62.45-31.225-31.406-62.632L23.237 42.44 3.631 3.226z"/><path d="M30.136 3.226l3.63-1.997 10.348 20.514 62.632 31.225 31.225 62.632 62.631 31.224 31.225 62.632 62.632 31.407 31.406 62.631 62.632 31.225 31.225 62.631 62.631 31.225 31.225 62.632 20.514 10.348-1.997 3.631-21.603-10.711-31.407-62.632-62.631-31.406-31.225-62.45-62.631-31.407-31.225-62.631-62.632-31.225-31.406-62.632-62.45-31.225-31.407-62.631-62.631-31.407L30.136 3.226z"/><path d="M56.46 3.226l3.812-1.997 1.452 2.905 62.631 31.225L155.58 97.99l62.632 31.225 31.225 62.632 62.631 31.406 31.407 62.632 62.631 31.225 31.225 62.631 62.632 31.225 31.225 62.632 2.904 1.452-1.997 3.812-3.994-1.997-31.406-62.631-62.632-31.407-31.225-62.45-62.631-31.406-31.225-62.632-62.631-31.225-31.407-62.631-62.45-31.225-31.406-62.632L58.456 7.22 56.46 3.226z"/><path d="M105.112 4.134L106.927.32l35.038 17.428L173.19 80.38l62.631 31.406 31.225 62.45 62.632 31.407 31.406 62.631 62.45 31.225 31.407 62.632 62.631 31.225L535 428.394l-3.812 1.815-16.884-33.585-62.631-31.406-31.225-62.45-62.632-31.407-31.225-62.631-62.631-31.225-31.407-62.632-62.449-31.225-31.407-62.631-33.585-16.883z"/><path d="M156.306 3.226l3.813-1.997 30.68 61.542 62.632 31.407 31.225 62.45 62.631 31.406 31.407 62.632 62.45 31.225 31.406 62.631 61.542 30.681-1.997 3.812-62.813-31.407-31.225-62.45-62.631-31.406-31.225-62.632-62.632-31.225-31.406-62.631-62.45-31.225-31.407-62.813z"/><path d="M182.63 3.226l3.812-1.997 21.967 43.933 62.631 31.406 31.225 62.45 62.632 31.407 31.406 62.631 62.45 31.225 31.406 62.632 43.933 21.966-1.997 3.812-45.203-22.692-31.225-62.45-62.632-31.407-31.225-62.631-62.631-31.225-31.407-62.632-62.45-31.224L182.63 3.225z"/><path d="M209.135 3.226l3.812-1.997 13.071 26.323L288.65 58.96l31.224 62.45 62.632 31.406 31.406 62.632 62.45 31.225 31.407 62.631 26.323 13.071-1.997 3.813-27.594-13.798-31.225-62.449-62.631-31.407-31.225-62.631-62.632-31.225-31.406-62.632-62.45-31.225-13.797-27.594z"/><path d="M235.458 3.226l3.812-1.997 4.357 8.714 62.632 31.407 31.225 62.449 62.631 31.407 31.407 62.631 62.45 31.225 31.406 62.632 8.714 4.357-1.997 3.812-9.984-5.083-31.225-62.45-62.632-31.406-31.225-62.632-62.631-31.225-31.407-62.631-62.45-31.225-5.083-9.985z"/><path d="M275.215 4.134L277.212.32l46.656 23.419 31.225 62.45 62.632 31.406 31.406 62.632 62.45 31.225L535 258.109l-3.812 1.997-22.693-45.385-62.631-31.407-31.225-62.631-62.632-31.225-31.406-62.632-45.386-22.692z"/><path d="M328.044 4.134L330.041.32l11.437 5.81 31.225 62.45 62.631 31.406 31.407 62.632 62.45 31.225L535 205.281l-3.812 1.997-5.083-10.167-62.632-31.406-31.225-62.632-62.631-31.225L338.21 9.217l-10.166-5.083z"/><path d="M361.629 3.226l3.812-1.997 24.871 49.742 62.632 31.407 31.406 62.631 49.742 24.871-1.997 3.813-51.013-25.598-31.225-62.631-62.631-31.225-25.597-51.013z"/><path d="M388.134 3.226l3.812-1.997 15.976 32.133 62.631 31.406L501.96 127.4l32.132 15.975-1.997 3.813-33.403-16.702-31.225-62.632-62.632-31.225-16.701-33.403z"/><path d="M414.457 3.226l3.812-1.997 7.262 14.523 62.632 31.407 31.406 62.631 14.523 7.262-1.997 3.812-15.794-7.988-31.225-62.631-62.631-31.225-7.988-15.794zm31.044.908L447.316.32l58.456 29.228L535 88.005l-3.812 1.816-28.502-57.185-57.185-28.502zm52.828 0L500.144.32l23.237 11.619L535 35.177l-3.812 1.816-10.893-21.967-21.966-10.892z"/></g><defs><clipPath id="clip0"><path transform="rotate(90 535 .321)" fill="#fff" d="M535 .321h535v535H535z"/></clipPath></defs></svg>
